contributed-vectors/youtube_vanced_alt_three.svg

<svg xmlns="http://www.w3.org/2000/svg" xml:space="preserve" style="fill-rule:evenodd;clip-rule:evenodd;stroke-linecap:round;stroke-linejoin:round;stroke-miterlimit:1.5" viewBox="0 0 192 192"><circle cx="96" cy="96" r="88" style="fill:url(#a)"/><circle cx="96" cy="96" r="88" style="fill:#56595b" transform="translate(11.454 11.454) scale(.88068)"/><path d="M105.085 80.234c1.192-2.285 3.421-3.696 5.836-3.696 2.414 0 4.643 1.411 5.836 3.696l18.688 35.788a7.865 7.865 0 0 1-.035 7.281c-1.202 2.248-3.412 3.631-5.801 3.631H92.233c-2.39 0-4.6-1.383-5.802-3.631a7.862 7.862 0 0 1-.034-7.281l18.688-35.788Z" style="fill:url(#b)" transform="matrix(0 .5893 -.54158 0 145.71 30.635)"/><path d="m80.699 126.934 24.594-47.099c1.15-2.203 3.299-3.564 5.628-3.564 2.328 0 4.477 1.361 5.628 3.564l24.594 47.099" style="fill:none;stroke:#fff;stroke-width:9.22px" transform="matrix(0 .90343 -.83028 0 186.41 -4.209)"/><defs><linearGradient id="a" x1="0" x2="1" y1="0" y2="0" gradientTransform="rotate(-45 207.724 38.264) scale(175.692)" gradientUnits="userSpaceOnUse"><stop offset="0" style="stop-color:#9cbefe;stop-opacity:1"/><stop offset="1" style="stop-color:#fd847f;stop-opacity:1"/></linearGradient><linearGradient id="b" x1="0" x2="1" y1="0" y2="0" gradientTransform="scale(-47.0949 -51.244) rotate(45 1.515 -4.647)" gradientUnits="userSpaceOnUse"><stop offset="0" style="stop-color:#9cbffe;stop-opacity:1"/><stop offset="1" style="stop-color:#fd847f;stop-opacity:1"/></linearGradient></defs></svg>

<?xml version="1.0" encoding="UTF-8" standalone="no"?>
<!DOCTYPE svg PUBLIC "-//W3C//DTD SVG 1.1//EN" "http://www.w3.org/Graphics/SVG/1.1/DTD/svg11.dtd">
<svg width="100%" height="100%" viewBox="0 0 192 192" version="1.1" xmlns="http://www.w3.org/2000/svg" xmlns:xlink="http://www.w3.org/1999/xlink" xml:space="preserve" xmlns:serif="http://www.serif.com/" style="fill-rule:evenodd;clip-rule:evenodd;stroke-linecap:round;stroke-linejoin:round;stroke-miterlimit:1.5;">
    <circle cx="96" cy="96" r="88" style="fill:url(#_Linear1);"/>
    <g transform="matrix(0.880682,0,0,0.880682,11.4545,11.4545)">
        <circle cx="96" cy="96" r="88" style="fill:rgb(86,89,91);"/>
    </g>
    <g transform="matrix(3.6084e-17,0.589296,-0.541581,3.31623e-17,145.71,30.6348)">
        <path d="M105.085,80.234C106.277,77.949 108.506,76.538 110.921,76.538C113.335,76.538 115.564,77.949 116.757,80.234C122.146,90.553 130.1,105.787 135.445,116.022C136.625,118.282 136.612,121.056 135.41,123.303C134.208,125.551 131.998,126.934 129.609,126.934C118.875,126.934 102.966,126.934 92.233,126.934C89.843,126.934 87.633,125.551 86.431,123.303C85.229,121.056 85.216,118.282 86.397,116.022C91.741,105.787 99.696,90.553 105.085,80.234Z" style="fill:url(#_Linear2);"/>
    </g>
    <g transform="matrix(5.5319e-17,0.903428,-0.830278,5.08399e-17,186.41,-4.2089)">
        <path d="M80.699,126.934C80.699,126.934 96.55,96.578 105.293,79.835C106.443,77.632 108.592,76.271 110.921,76.271C113.249,76.271 115.398,77.632 116.549,79.835C125.292,96.578 141.143,126.934 141.143,126.934" style="fill:none;stroke:white;stroke-width:9.22px;"/>
    </g>
    <defs>
        <linearGradient id="_Linear1" x1="0" y1="0" x2="1" y2="0" gradientUnits="userSpaceOnUse" gradientTransform="matrix(124.233,-124.233,124.233,124.233,33.784,158.09)"><stop offset="0" style="stop-color:rgb(156,190,254);stop-opacity:1"/><stop offset="1" style="stop-color:rgb(253,132,127);stop-opacity:1"/></linearGradient>
        <linearGradient id="_Linear2" x1="0" y1="0" x2="1" y2="0" gradientUnits="userSpaceOnUse" gradientTransform="matrix(-33.3011,-36.235,33.3011,-36.235,133.844,124.648)"><stop offset="0" style="stop-color:rgb(156,191,254);stop-opacity:1"/><stop offset="1" style="stop-color:rgb(253,132,127);stop-opacity:1"/></linearGradient>
    </defs>
</svg>
